assets/svg/1F346.svg

<svg xmlns="http://www.w3.org/2000/svg" viewBox="0 0 64 64" enable-background="new 0 0 64 64"><path fill="#6a3977" d="m11.1 9.04c0 0-9.05 8.562-5.059 20.476 3.999 11.912 18.532 38.602 38.623 33.852 20.09-4.753 21.797-32.08 12.657-33.38-9.137-1.301-25.846-6.421-34.06-19.13.0001-.0001-4.198-4.715-12.162-1.821"/><path fill="#492656" d="m44.663 47.41c-19.05 4.506-33.11-19.271-37.921-31.898-1.583 3.573-2.57 8.418-.7 14 3.997 11.912 18.53 38.602 38.621 33.852 16.71-3.952 20.702-23.509 16.317-30.734-2.438 6.524-7.676 12.739-16.317 14.78"/><path fill="#0b7d70" d="m1.476 11.06c1.25-1.565 7.288.796 8.374 1.961 1.086 1.171-2.58 2.899-4.45 4.161-1.928 1.301-3.808 2.733-4.89 1.567-1.086-1.172-.284-6.126.966-7.689"/><g fill="#2bb573"><path d="m5.05.146c.166.06.635 1.159.645 1.268.176 2.692 4.088 8.07 4.669 8.812 1.35 1.703 1.982 4.158 1.121 4.34-.833.175-3.967-3.049-4.616-3.672-1.586-1.528-3.06-3.771-3.89-5.89-.873-2.231-.489-5.765 2.071-4.858"/><path d="m11.903 5.264c1.478-1.654 8.158 1.301 9.324 2.657 1.165 1.36-3.02 3.059-5.18 4.348-2.229 1.323-4.407 2.803-5.571 1.443-1.166-1.355-.045-6.79 1.427-8.448"/></g><path fill="#04a69c" d="m3.167 14.817c.585-1.829 5.985-1.782 7.152-1.107 1.163.676-1.289 3.486-2.444 5.252-1.192 1.827-2.306 3.762-3.471 3.081-1.161-.673-1.819-5.397-1.237-7.226"/></svg>

<?xml version="1.0" encoding="UTF-8" standalone="no"?>
<!-- Generator: Adobe Illustrator 16.0.0, SVG Export Plug-In . SVG Version: 6.00 Build 0)  -->

<svg
   xmlns:dc="http://purl.org/dc/elements/1.1/"
   xmlns:cc="http://creativecommons.org/ns#"
   xmlns:rdf="http://www.w3.org/1999/02/22-rdf-syntax-ns#"
   xmlns:svg="http://www.w3.org/2000/svg"
   xmlns="http://www.w3.org/2000/svg"
   xmlns:sodipodi="http://sodipodi.sourceforge.net/DTD/sodipodi-0.dtd"
   xmlns:inkscape="http://www.inkscape.org/namespaces/inkscape"
   version="1.1"
   id="Layer_1"
   x="0px"
   y="0px"
   width="64px"
   height="64px"
   viewBox="0 0 64 64"
   enable-background="new 0 0 64 64"
   xml:space="preserve"
   inkscape:version="0.48.5 r10040"
   sodipodi:docname="1F346.svg"
   inkscape:export-filename="D:\TESTINGEMOJI\SVGTEST\1F346.png"
   inkscape:export-xdpi="90"
   inkscape:export-ydpi="90"><metadata
   id="metadata3121"><rdf:RDF><cc:Work
       rdf:about=""><dc:format>image/svg+xml</dc:format><dc:type
         rdf:resource="http://purl.org/dc/dcmitype/StillImage" /><dc:title></dc:title></cc:Work></rdf:RDF></metadata><defs
   id="defs3119" /><sodipodi:namedview
   pagecolor="#ffffff"
   bordercolor="#666666"
   borderopacity="1"
   objecttolerance="10"
   gridtolerance="10"
   guidetolerance="10"
   inkscape:pageopacity="0"
   inkscape:pageshadow="2"
   inkscape:window-width="640"
   inkscape:window-height="480"
   id="namedview3117"
   showgrid="false"
   inkscape:zoom="3.6875"
   inkscape:cx="32"
   inkscape:cy="32"
   inkscape:window-x="350"
   inkscape:window-y="331"
   inkscape:window-maximized="0"
   inkscape:current-layer="Layer_1" />
<g
   id="g3101">
	<g
   id="g3103">
		<path
   fill="#6A3977"
   d="M11.099,9.037c0,0-9.054,8.562-5.059,20.476c3.999,11.912,18.532,38.602,38.623,33.852    C64.757,58.612,66.46,31.288,57.32,29.985c-9.137-1.301-25.846-6.421-34.059-19.127C23.262,10.857,19.063,6.143,11.099,9.037z"
   id="path3105" />
	</g>
	<path
   fill="#492656"
   d="M44.663,47.411C25.609,51.917,11.548,28.14,6.742,15.513c-1.583,3.573-2.57,8.418-0.7,14   c3.997,11.912,18.53,38.602,38.621,33.852c16.71-3.952,20.702-23.509,16.317-30.734C58.542,39.155,53.304,45.37,44.663,47.411z"
   id="path3107" />
	<path
   fill="#0B7D70"
   d="M1.476,11.061c1.25-1.565,7.288,0.796,8.374,1.961c1.086,1.171-2.58,2.899-4.45,4.161   c-1.928,1.301-3.808,2.733-4.89,1.567C-0.576,17.578,0.226,12.624,1.476,11.061z"
   id="path3109" />
	<path
   fill="#2BB573"
   d="M5.05,0.146c0.166,0.06,0.635,1.159,0.645,1.268c0.176,2.692,4.088,8.075,4.669,8.812   c1.35,1.703,1.982,4.158,1.121,4.34c-0.833,0.175-3.967-3.049-4.616-3.672C5.283,9.366,3.809,7.123,2.979,5.004   C2.106,2.773,2.49-0.761,5.05,0.146z"
   id="path3111" />
	<path
   fill="#2BB573"
   d="M11.903,5.264c1.478-1.654,8.158,1.301,9.324,2.657c1.165,1.36-3.021,3.059-5.18,4.348   c-2.229,1.323-4.407,2.803-5.571,1.443C9.31,12.357,10.431,6.922,11.903,5.264z"
   id="path3113" />
	<path
   fill="#04A69C"
   d="M3.167,14.817c0.585-1.829,5.985-1.782,7.152-1.107c1.163,0.676-1.289,3.486-2.444,5.252   c-1.192,1.827-2.306,3.762-3.471,3.081C3.243,21.37,2.585,16.646,3.167,14.817z"
   id="path3115" />
</g>
</svg>
